icons/svg/subway/subway_washington.svg

<?xml version="1.0" encoding="UTF-8" standalone="no"?>
<svg
   xmlns:dc="http://purl.org/dc/elements/1.1/"
   xmlns:cc="http://creativecommons.org/ns#"
   xmlns:rdf="http://www.w3.org/1999/02/22-rdf-syntax-ns#"
   xmlns:svg="http://www.w3.org/2000/svg"
   xmlns="http://www.w3.org/2000/svg"
   xmlns:sodipodi="http://sodipodi.sourceforge.net/DTD/sodipodi-0.dtd"
   xmlns:inkscape="http://www.inkscape.org/namespaces/inkscape"
   width="16"
   height="16"
   id="svg2"
   version="1.1"
   inkscape:version="0.91 r"
   sodipodi:docname="subway_washington.svg">
  <defs
     id="defs13">
    <linearGradient
       gradientTransform="matrix(0.08596979,0,0,0.08596979,0.67480439,1.9432845)"
       x1="87.101639"
       y1="121.69753"
       x2="87.260849"
       y2="1.2385538"
       id="l1"
       gradientUnits="userSpaceOnUse">
      <stop
         style="stop-color:#e92203;stop-opacity:1"
         offset="0"
         id="stop5" />
      <stop
         style="stop-color:#ff0000;stop-opacity:0.64628822"
         offset="1"
         id="stop7" />
    </linearGradient>
    <linearGradient
       gradientTransform="matrix(0.08400469,0,0,0.08400469,0.8422306,2.0814238)"
       x1="87.101639"
       y1="121.69753"
       x2="87.260849"
       y2="1.2385538"
       id="l1-2"
       gradientUnits="userSpaceOnUse">
      <stop
         style="stop-color:#e92203;stop-opacity:1"
         offset="0"
         id="stop5-8" />
      <stop
         style="stop-color:#ff0000;stop-opacity:0.64628822"
         offset="1"
         id="stop7-4" />
    </linearGradient>
  </defs>
  <sodipodi:namedview
     pagecolor="#ffffff"
     bordercolor="#666666"
     borderopacity="1"
     objecttolerance="10"
     gridtolerance="10"
     guidetolerance="10"
     inkscape:pageopacity="0"
     inkscape:pageshadow="2"
     inkscape:window-width="1908"
     inkscape:window-height="998"
     id="namedview11"
     showgrid="true"
     inkscape:zoom="32"
     inkscape:cx="9.2847947"
     inkscape:cy="6.2710737"
     inkscape:window-x="1680"
     inkscape:window-y="0"
     inkscape:window-maximized="0"
     inkscape:current-layer="svg2"
     showguides="false"
     inkscape:snap-global="false">
    <sodipodi:guide
       position="0,0"
       orientation="0,580"
       id="guide2989" />
    <sodipodi:guide
       position="580,0"
       orientation="-580,0"
       id="guide2991" />
    <sodipodi:guide
       position="580,580"
       orientation="0,-580"
       id="guide2993" />
    <sodipodi:guide
       position="0,580"
       orientation="580,0"
       id="guide2995" />
    <sodipodi:guide
       position="0,0"
       orientation="0,580"
       id="guide2997" />
    <sodipodi:guide
       position="580,0"
       orientation="-580,0"
       id="guide2999" />
    <sodipodi:guide
       position="580,580"
       orientation="0,-580"
       id="guide3001" />
    <sodipodi:guide
       position="0,580"
       orientation="580,0"
       id="guide3003" />
    <inkscape:grid
       type="xygrid"
       id="grid3013"
       empspacing="5"
       visible="true"
       enabled="true"
       snapvisiblegridlinesonly="true" />
  </sodipodi:namedview>
  <metadata
     id="metadata2975">image/svg+xmlen<rdf:RDF>
  <cc:Work
     rdf:about="">
    <dc:format>image/svg+xml</dc:format>
    <dc:type
       rdf:resource="http://purl.org/dc/dcmitype/StillImage" />
    <dc:title />
  </cc:Work>
</rdf:RDF>
</metadata>
  <path
     inkscape:connector-curvature="0"
     d="m 5.3210095,4.2373729 5.3730315,0 c 0.135455,0 0.240808,0.1140831 0.240808,0.2558586 l 0,7.0135375 c 0,0.135448 -0.105354,0.255858 -0.240808,0.255858 l -5.3730315,0 c -0.1417761,0 -0.2558587,-0.120398 -0.2558587,-0.255858 l 0,-7.0135375 c 0,-0.1417761 0.114083,-0.2558586 0.2558587,-0.2558586 z"
     id="path4" />
  <path
     inkscape:connector-curvature="0"
     style="fill:#fefefe;fill-opacity:1"
     d="m 5.5618176,4.6888881 0,4.9215163 0.9782831,0 0,-3.4164654 0.978283,3.4164654 0.9782831,0 0.978283,-3.4164654 0,3.4164654 0.9782832,0 0,-4.9215163 -1.4598994,0 -0.9782831,3.2810108 -0.9933335,-3.2810108 -1.4598994,0 z m 2.7241421,5.1623244 0,0.2709095 -0.1505051,0 0,0.180606 0.1505051,0 0,0.316061 c 0,0.31606 0.015051,0.331111 0.030101,0.361212 0.030101,0.04515 0.075252,0.0602 0.1354552,0.07525 0.075252,0.01505 0.1655556,0.01505 0.2257576,0.01505 l 0.045151,-0.01505 0,-0.180605 -0.060202,0 c -0.060202,0 -0.075253,0 -0.1053543,-0.01505 -0.015051,-0.0301 -0.015051,-0.0301 -0.015051,-0.30101 l -0.015051,-0.255858 0.1956566,0 0,-0.180606 -0.1956566,0 0,-0.2709097 -0.2408081,0 z m 1.6856571,0.2709095 c -0.1655558,0 -0.3311114,0.0602 -0.4063639,0.210707 -0.1053542,0.195657 -0.075252,0.451515 0.060202,0.617071 0.1956566,0.180606 0.5117171,0.180606 0.7073741,0 0.150505,-0.165556 0.165555,-0.421414 0.0602,-0.617071 -0.0903,-0.165556 -0.255859,-0.195657 -0.4214142,-0.210707 z m -2.36293,0 c -0.2709092,0.01505 -0.4665658,0.195656 -0.4665658,0.481616 0,0.225758 0.120404,0.406364 0.3461617,0.466566 0.075253,0.01505 0.2257577,0.01505 0.3160607,-0.01505 0.075253,-0.0301 0.1655556,-0.105352 0.2107071,-0.195656 0.015051,-0.0301 0.030101,-0.07525 0.030101,-0.07525 l -0.2107071,0 c -0.045152,0.07525 -0.1053542,0.105354 -0.2107071,0.105354 -0.1053542,0 -0.2257576,-0.105354 -0.2257576,-0.225757 l 0.6622224,0 C 8.0752526,10.37798 7.909697,10.122122 7.6086868,10.122122 l 0,0 z m -1.5140812,0 c -0.094818,0 -0.1941515,0.01505 -0.2573637,0.0903 -0.021071,0.0301 -0.040636,0.04515 -0.043647,0.04515 l -0.00602,-0.135455 -0.2257577,0 0,0.948182 0.2468282,0 0,-0.316061 c 0,-0.28596 0.00151,-0.30101 0.024081,-0.346162 0.040636,-0.07525 0.1068592,-0.120403 0.1926465,-0.105354 0.049667,0.01505 0.088798,0.04515 0.1038478,0.105354 0.00452,0.01505 0.00903,0.165556 0.00903,0.346162 l 0,0.316061 0.2543536,0 0.00452,-0.331111 c 0.00301,-0.301011 0.00301,-0.316061 0.024081,-0.361213 0.01204,-0.01505 0.037626,-0.04515 0.057192,-0.04515 0.046657,-0.0301 0.1369602,-0.0301 0.1821111,0 0.060202,0.0301 0.060202,0.04515 0.060202,0.406364 l 0,0.331112 0.2558586,0 0,-0.376264 c 0,-0.346161 0,-0.361212 -0.030101,-0.406363 -0.060208,-0.135454 -0.1655611,-0.150505 -0.3010157,-0.165555 -0.1128791,0 -0.1595354,0.01505 -0.2408081,0.0903 l -0.049667,0.04515 -0.025586,-0.04515 c -0.049667,-0.0602 -0.1399702,-0.0903 -0.2347882,-0.0903 z m 3.3502432,0 -0.060202,0 c -0.1053527,0 -0.1956566,0.04515 -0.2558586,0.135455 l -0.030101,0.04515 0,-0.180606 -0.2408083,0 0,0.948183 0.2558587,0 0,-0.240809 c 0,-0.270909 0,-0.331111 0.045151,-0.391313 0.060202,-0.07525 0.1053542,-0.0903 0.2107071,-0.0903 l 0.075253,0 0,-0.225758 z m 0.7525252,0.541818 c -0.01505,0.316061 -0.4063635,0.30101 -0.4364645,0 -0.060202,-0.481616 0.4816165,-0.511717 0.4364645,0 z m -2.3930306,-0.165556 -0.4063637,0 c 0.030101,-0.270909 0.3762627,-0.270909 0.4063637,0 z"
     id="path6" />
</svg>

<svg width="16" height="16" viewBox="0 0 16 16" fill="none" xmlns="http://www.w3.org/2000/svg">
<path d="M5.32098 4.23737H10.694C10.8295 4.23737 10.9348 4.35145 10.9348 4.49322V11.5068C10.9348 11.6422 10.8295 11.7626 10.694 11.7626H5.32098C5.17921 11.7626 5.06512 11.6422 5.06512 11.5068V4.49322C5.06512 4.35145 5.17921 4.23737 5.32098 4.23737V4.23737Z" fill="black"/>
<path d="M5.56183 4.68887V9.61039H6.54011V6.19392L7.51839 9.61039H8.49668L9.47496 6.19392V9.61039H10.4532V4.68887H8.99335L8.01506 7.96988L7.02173 4.68887H5.56183V4.68887ZM8.28597 9.8512V10.1221H8.13547V10.3027H8.28597V10.6188C8.28597 10.9348 8.30102 10.9499 8.31607 10.98C8.34617 11.0251 8.39132 11.0402 8.45153 11.0552C8.52678 11.0703 8.61708 11.0703 8.67729 11.0703L8.72244 11.0552V10.8746H8.66223C8.60203 10.8746 8.58698 10.8746 8.55688 10.8596C8.54183 10.8295 8.54183 10.8295 8.54183 10.5586L8.52678 10.3027H8.72243V10.1221H8.52678V9.8512H8.28597H8.28597ZM9.97163 10.1221C9.80607 10.1221 9.64052 10.1823 9.56526 10.3328C9.45991 10.5285 9.49001 10.7843 9.62547 10.9499C9.82112 11.1305 10.1372 11.1305 10.3328 10.9499C10.4833 10.7843 10.4984 10.5285 10.393 10.3328C10.3027 10.1673 10.1372 10.1372 9.97163 10.1221H9.97163ZM7.6087 10.1221C7.33779 10.1372 7.14213 10.3178 7.14213 10.6037C7.14213 10.8295 7.26254 11.0101 7.48829 11.0703C7.56355 11.0853 7.71405 11.0853 7.80435 11.0552C7.87961 11.0251 7.96991 10.9499 8.01506 10.8596C8.03011 10.8295 8.04516 10.7843 8.04516 10.7843H7.83446C7.7893 10.8596 7.7291 10.8897 7.62375 10.8897C7.51839 10.8897 7.39799 10.7843 7.39799 10.6639H8.06021C8.07526 10.378 7.90971 10.1221 7.6087 10.1221V10.1221ZM6.09462 10.1221C5.9998 10.1221 5.90047 10.1372 5.83725 10.2124C5.81618 10.2425 5.79662 10.2576 5.79361 10.2576L5.78759 10.1221H5.56183V11.0703H5.80866V10.7542C5.80866 10.4683 5.81017 10.4532 5.83274 10.4081C5.87337 10.3328 5.9396 10.2877 6.02538 10.3027C6.07505 10.3178 6.11418 10.3479 6.12923 10.4081C6.13375 10.4231 6.13826 10.5736 6.13826 10.7542V11.0703H6.39262L6.39714 10.7392C6.40015 10.4382 6.40015 10.4231 6.42122 10.378C6.43326 10.3629 6.45884 10.3328 6.47841 10.3328C6.52507 10.3027 6.61537 10.3027 6.66052 10.3328C6.72072 10.3629 6.72072 10.378 6.72072 10.7392V11.0703H6.97658V10.694C6.97658 10.3479 6.97658 10.3328 6.94648 10.2877C6.88627 10.1522 6.78092 10.1372 6.64546 10.1221C6.53258 10.1221 6.48593 10.1372 6.40466 10.2124L6.35499 10.2576L6.3294 10.2124C6.27974 10.1522 6.18943 10.1221 6.09461 10.1221L6.09462 10.1221ZM9.44486 10.1221H9.38466C9.27931 10.1221 9.189 10.1673 9.1288 10.2576L9.0987 10.3027V10.1221H8.85789V11.0703H9.11375V10.8295C9.11375 10.5586 9.11375 10.4984 9.1589 10.4382C9.2191 10.3629 9.26425 10.3479 9.36961 10.3479H9.44486V10.1221V10.1221ZM10.1974 10.6639C10.1823 10.98 9.79102 10.9649 9.76092 10.6639C9.70072 10.1823 10.2425 10.1522 10.1974 10.6639ZM7.80435 10.4984H7.39799C7.42809 10.2275 7.77425 10.2275 7.80435 10.4984Z" fill="#FEFEFE"/>
</svg>
